X:146
%%pagewidth 9in
%%vocalfont Baskerville10Pro 15
T:Down in the north country
M:C
L:1/8
K:Eb
%%score 1 2
V:1 clef-treble
V:2 clef-bass octave=-1
V:1
B,2|(CD)E2(GF)G2|B4e4|c2(BG) (AG)(FE)|
w:Ah, cru-*el bloody** fate, What canst thou* now* do*
V:2
[EG]2|[EA]4[EB]4|x4c3c&[EG]4E4|[Ee]4[EB]4|
V:1
[DF]6B,2|(CD)E2 (GF)G2|B6(cd)|(ed)(cB)B3=A&E4E4|B6&D6||
w:more? Ah me,* 'tis now* too late, Phi-*lan-*der* to res-tore,
V:2
B4B,2B,2|[EA]4[EB]4|G3AB4&E4D4|C4F4|(B,4B2)||
V:1
e2&G2|d3c def2&F4B4|B3B [GB]2(AG)|c3B (AG)(FE)&C4C4|D6AG|
w:Why should the heav-en-ly pow'rs per-suade Poor* mor-tals to*be-*lieve That they
V:2
B2|B4_A4|G4E4|A4F4|B8&B4B,4|
V:1
A2d2c2BA|(GA)B2!fermata!B3B,&x4E4|C2AGF3E&C4D4|E6&E6||
w:guard us here and re-ward* us there, Yet all our* joys de-ceive.
V:2
c2B2A2GF&E8|E4!invertedfermata!G,4&E4x4|A,4B,4|(E4E,2)||

